X: 110101
Q: "Strathspey."
M: C
L: 1/8
K: D
|: uF |\
ug |\
f<d d>uf e<c c>ue | d<B B>ud A<F F>g |
f<d d>f e<c c>A | B<d A>F E<E E>ug |\
f<d d>f e<c c>e | d<f B>d A<F F>A |\
d<f c<e B<d A<B | F<d A>F FE E |]


